client/resources/iconsets/breeze/src/svg/16x16/icon_note_icon_view.svg

<svg xmlns="http://www.w3.org/2000/svg" width="16" height="16" viewBox="0 0 16 16">
 <path style="fill:#6d6d70"
       d="M 3 1 C 2.446 1 2 1.446 2 2 L 2 12 L 5 15 L 13 15 C 13.554 15 14 14.554 14 14 L 14 3 L 14 1 L 3 1 z M 4 3 L 12 3 L 12 13 L 6 13 L 6 11 L 4 11 L 4 3 z M 6 5 C 5.446 5 5 5.446 5 6 C 5 6.554 5.446 7 6 7 L 10 7 C 10.554 7 11 6.554 11 6 C 11 5.446 10.554 5 10 5 L 6 5 z "
       />
</svg>

<svg xmlns="http://www.w3.org/2000/svg" width="16" height="16"><path d="M3 1a1 1 0 0 0-1 1v10l3 3h8a1 1 0 0 0 1-1V3 1H3zm1 2h8v10H6v-2H4V3zm2 2a1 1 0 1 0 0 2h4a1 1 0 1 0 0-2H6z" fill="#6d6d70"/></svg>
